X:1
T:Title
%%score { ( 1 3 4 6 ) | ( 2 5 ) }
L:1/8
M:4/4
K:C
V:1 treble nm="Grand Piano"
V:3 treble 
V:4 treble 
V:6 treble 
V:2 bass 
V:5 bass 
V:1
 z4 z2[Q:1/4=110] E2 | E2 EE [EG]2 [DF]E | E2 D4 D2 | D2 EF [FA]2 [EG][DF] | E6 E2 | E2 EE E2 cB | %6
 [DB]2 [CA]4 [CG]2 | ^F2 FG [FA]2 [GB][Ac] | [GB]4 [Fd]2 [Ec]2 | B2 DG [^FB]2 [FB]>[FA] | %10
 G2[K:bass] F,2 E,2 D,2 |[M:6/4] C6[K:treble] z2 E4 | C6 G6 | z2 C2 C2 .c4 z c | E12 | D6 z2 G4 | %16
 E6 c6 | B6 z2 ^G4 | B12 | C6[K:bass] z2 E4[K:treble] | C6 G6 | z2 C2 C2 .c4 z c | E12 | d6 z2 B4 | %24
 [EG]6 [EGc]6 | e6 z2 c4 | [EAd]6 [EAc]6 | [^F-d]6 F6 | [EA]6 G6 | %29
[M:27/16] [^FA]/-[FA]/-[FA]/-[FA]/-[FA]/-[FA]/-[FA]/-[FA]/-[FA]-<[FA]B-<Be/-e/-e/-e/-e/-e-<ed[Q:1/4=108][Q:1/4=107][Q:1/4=105][Q:1/4=104][Q:1/4=102][Q:1/4=100][Q:1/4=99][Q:1/4=97][Q:1/4=95][Q:1/4=94][Q:1/4=92][Q:1/4=91][Q:1/4=89][Q:1/4=87][Q:1/4=86][Q:1/4=84] | %30
[M:5/4] [Ec]2- [Ec]2- [Ec]6 |] %31
V:2
 z4 z2 [C,G,C]2 | [C,G,C]2 [C,G,C][C,G,C] [C,G,]2 [C,G,][C,G,C] | [F,A,C]2 [F,A,C]4 [F,A,C]2 | %3
 [G,B,]2 [G,C][G,D] [G,,G,]2 [G,,G,][G,,G,] | [C,G,C]6 [C,G,C]2 | %5
 [C,G,C]2 [C,G,C][C,G,C] [C,^G,D]2 [E,G,E][E,G,D] | [A,,E,]2 [A,,E,]4 [A,,A,]2 | %7
 [D,A,C]2 [D,A,C][D,B,D] [D,D]2 [D,D][D,D] | [G,D]4 [B,,G,]2 [C,G,]2 | %9
 [D,G,D]2 [D,G,B,][D,B,D] [D,D]2 [D,D]>[D,C] | [G,B,]2 F,,2 E,,2 D,,2 | %11
[M:6/4] [C,,C,]2 E,2 E,2 [G,,,G,,]2 [F,G,B,]2 [F,G,]2 | [C,,C,]2 E,2 E,2 z2 B,2 B,2 | %13
 [F,,F,]2 [F,A,]2 [F,A,]2 [F,,F,]2 [F,A,C]2 [F,^G,]2 | %14
 [C,,C,]2 [E,G,]2 [E,G,]2 [E,G,]2 [E,G,]2 [E,G,]2 | F,,2 [F,A,]2 [F,A,]2 G,,2 [F,A,B,]2 [F,G,]2 | %16
 [C,,C,]2 [E,G,]2 [E,G,]2 A,,2 [E,G,]2 [E,G,]2 | z2 [B,E]2 [B,E]2 z2 [B,D]2 B,2 | %18
 z2 [B,E]2 [B,E]2 z2[K:treble] [B,F]2 [B,F]2 | [C,,C,]2 E,2 E,2 [G,,,G,,]2 [F,G,B,]2 [F,G,]2 | %20
 [C,,C,]2 E,2 E,2 z2 B,2 B,2 | [F,,F,]2 [F,A,]2 [F,A,]2 [F,,F,]2 [F,A,C]2 [F,^G,]2 | %22
 [C,,C,]2 [E,G,]2 [E,G,]2 [E,G,]2 [E,G,]2 [E,G,]2 | %23
 [D,,D,]2 [D,A,]2 [D,A,]2 [D,A,C]2 [D,A,C]2 [D,A,]2 | %24
 [G,,G,]2 [E,G,]2 [E,G,]2 [E,G,C]2 [E,G,]2 [E,G,]2 | %25
 [E,,E,]2 [E,B,]2 [E,B,]2 [E,B,D]2 [E,B,D]2 [E,B,]2 | %26
 [A,,A,]2 [E,A,]2 [E,A,]2 [E,A,C]2 [E,A,]2 [E,A,]2 | %27
 [D,,D,]2 [D,A,]2 [D,A,]2 [D,A,C]2 [D,A,C]2 [D,A,]2 | z6 .[E,G,C]6 | %29
[M:27/16] [D,C]/-[D,C]/-[D,C]/-[D,C]/-[D,C]/-[D,C]/-[D,C]/-[D,C]/-[D,C]-<[D,C][K:treble][G,DF]-<[G,DF][G,B,G]/-[G,B,G]/-[G,B,G]/-[G,B,G]/-[G,B,G]/-[G,B,G]-<[G,B,G][G,B,F] | %30
[M:5/4][K:bass] [C,G,C]2- [C,G,C]2- [C,G,C]6 |] %31
V:3
 x8 | x8 | x8 | x8 | x8 | x8 | x8 | x8 | x8 | x8 | x2[K:bass] x6 | %11
[M:6/4] z2 G,2 G,2[K:treble] .D4 z D | z2 G,2 G,2 z2 C2 C2 | F6 z2 F4 | z2 C2 C2 C2 C2 C2 | %15
 z2 C2 C2 .A4 z F | z2 C2 C2 z2 C2 C2 | z2 ^G2 G2 .A4 z A | z2 ^G2 G2 [B,F=G]2 G2 G2 | %19
 z2[K:bass] G,2 G,2 .D4 z[K:treble] D | z2 G,2 G,2 z2 C2 C2 | F6 z2 F4 | z2 C2 C2 C2 C2 C2 | %23
 [D^F]2- [CD-F-]2 [CD-F-]2 [D-F-c]4 [DF]-[DFA] | z2 C2 C2 z2 C2 C2 | %25
 [E^G]2- [DE-G-]2 [DE-G-]2 [E-G-d]4 [EG]-[EGB] | z2 C2 C2 z2 C2 C2 | z6 z2 A4 | z2 C2 C2 z2 C2 C2 | %29
[M:27/16] x27/2 |[M:5/4] x10 |] %31
V:4
 x8 | x8 | x8 | x8 | x8 | x8 | x8 | x8 | x8 | x8 | x2[K:bass] x6 |[M:6/4] z6[K:treble] z4 B,2 | %12
 x12 | z6 z4 C2 | x12 | z6 z4 B,2 | x12 | z6 z4 D2 | x12 | z6[K:bass] z4 B,2[K:treble] | x12 | %21
 z6 z4 C2 | x12 | z6 z4 C2 | x12 | z6 z4 D2 | x12 | D2- [CD-]2 [CD-]2 [D-c]4 D-[D^F] | x12 | %29
[M:27/16] x27/2 |[M:5/4] x10 |] %31
V:5
 x8 | x8 | x8 | x8 | x8 | x8 | x8 | x8 | x8 | x8 | x8 |[M:6/4] x12 | z6 [E,,E,]6 | x12 | x12 | %15
 x12 | x12 | B,,6 [B,,,B,,]6 | [E,,E,]6 [D,,D,]6[K:treble] | x12 | z6 [E,,E,]6 | x12 | x12 | x12 | %24
 x12 | x12 | x12 | x12 | [G,,G,]2 [E,G,]2 [E,G,]2 E2- [E,G,E-]2 [E,G,E]2 | %29
[M:27/16] x6[K:treble] x15/2 |[M:5/4][K:bass] x10 |] %31
V:6
 x8 | x8 | x8 | x8 | x8 | x8 | x8 | x8 | x8 | x8 | x2[K:bass] x6 |[M:6/4] x6[K:treble] x6 | x12 | %13
 x12 | x12 | x12 | x12 | x12 | x12 | x2[K:bass] x9[K:treble] x | x12 | x12 | x12 | x12 | x12 | %25
 x12 | x12 | z6 z4 C2 | x12 |[M:27/16] x27/2 |[M:5/4] x10 |] %31

